icons/solid/view-list.svg

<svg width="24" height="24" viewBox="0 0 24 24" fill="none" xmlns="http://www.w3.org/2000/svg">
<path fill-rule="evenodd" clip-rule="evenodd" d="M4 5C2.89543 5 2 5.89543 2 7V17C2 18.1046 2.89543 19 4 19H20C21.1046 19 22 18.1046 22 17V7C22 5.89543 21.1046 5 20 5H4ZM5 7C4.44772 7 4 7.44772 4 8C4 8.55228 4.44772 9 5 9H6C6.55228 9 7 8.55228 7 8C7 7.44772 6.55228 7 6 7H5ZM10 7C9.44772 7 9 7.44772 9 8C9 8.55228 9.44772 9 10 9H19C19.5523 9 20 8.55228 20 8C20 7.44772 19.5523 7 19 7H10ZM5 11C4.44772 11 4 11.4477 4 12C4 12.5523 4.44772 13 5 13H6C6.55228 13 7 12.5523 7 12C7 11.4477 6.55228 11 6 11H5ZM10 11C9.44772 11 9 11.4477 9 12C9 12.5523 9.44772 13 10 13H19C19.5523 13 20 12.5523 20 12C20 11.4477 19.5523 11 19 11H10ZM5 15C4.44772 15 4 15.4477 4 16C4 16.5523 4.44772 17 5 17H6C6.55228 17 7 16.5523 7 16C7 15.4477 6.55228 15 6 15H5ZM10 15C9.44772 15 9 15.4477 9 16C9 16.5523 9.44772 17 10 17H19C19.5523 17 20 16.5523 20 16C20 15.4477 19.5523 15 19 15H10Z" fill="currentColor"/>
</svg>

<svg width="24" height="24" fill="none" xmlns="http://www.w3.org/2000/svg"><path fill-rule="evenodd" clip-rule="evenodd" d="M4 5a2 2 0 00-2 2v10a2 2 0 002 2h16a2 2 0 002-2V7a2 2 0 00-2-2H4zm1 2a1 1 0 000 2h1a1 1 0 000-2H5zm5 0a1 1 0 000 2h9a1 1 0 100-2h-9zm-5 4a1 1 0 100 2h1a1 1 0 100-2H5zm5 0a1 1 0 100 2h9a1 1 0 100-2h-9zm-5 4a1 1 0 100 2h1a1 1 0 100-2H5zm5 0a1 1 0 100 2h9a1 1 0 100-2h-9z" fill="currentColor"/></svg>
